!!!!SEGMENT: pl-kk--kk-i-135_anonim--benedicite-omnia-opera.krn
!!!cenid: 16xx:746
!!!COM: Anonim
!!!COM-rismID: pe30004985
!!!CDT:
!!!CNT:
!!!OTL: Benedicite omnia opera
!!!PDT:
!!!AGN: Sacred
!!!SMS-siglum: PL-Kk
!!!SMS-shelfmark: Kk.I.135
!!!SMS-shelfwork: W
!!!SMS-variant:
!!!SMS-altvar:
!!!NIFC-rismSourceID: 1001143728
!!!NIFC-islandoraID: pl-kk:3567
!!!URL-pdf-islandora: https://repozytorium.nifc.pl/islandora/object/pl-kk%3A3567/datastream/PDF/view
!!!URL-scan: https://polish.musicsources.pl/pl/lokalizacje/galeria/rekopisy/5765 @EN{Scan on Polish Music Sources Website} @PL{Skany w portalu Dziedzictwo Muzyki Polskiej w otwartym dostępie}
!!!ONB-nifc:
!!!AIN: 1 empty
!!!key:
**kern	**text
*Iempty	*
*I"Baſso	*
*I'B	*
*clefF4	*
*k[f#c#]	*
*D:	*
*M4/4	*
*met(c)	*
=1	=1
!LO:TX:a:t=Primo Choro.	!
!LO:TX:t=P:all\right:problem	!
8D\	Be-
8D\	-ne-
8D\	-di-
16D\	-ci-
16D\	-te
4G\	om-
8G\	-ni-
8G\	-a
=2	=2
4F#\	o-
8F#\	-pe-
8G\	-ra
4A\	Do-
8B\	-mi-
8G\	-ni
=3	=3
4.A\	Do-
8A\	-mi-
8D\	-no
8A\	lau-
4d\	-da-
=4	=4
4A\	-te
4r	.
!!LO:LB:g=original
8r	.
8A\	et
8F#\	su-
8F#\	-per-
=5	=5
8G\	-e-
8A\	-xal-
8B\	-ta-
8c#\	-te
4d\	e-
8F#\	-um
8G\	in
=6	=6
4.A\	sae-
8A\	-cu-
4D/	-la
4r	.
=7	=7
2r	.
8E\	be-
8E\	-ne-
8E\	-di-
16E\	-ci-
16E\	-te
=8	=8
4D\	cae-
4AA/	-li
4.E\	Do-
8E\	-mi-
!!LO:LB:g=original
=9	=9
4AA/	-no
4r	.
2r	.
=10	=10
1r	.
=11-	=11-
4r	.
8BB/	be-
8BB/	-ne-
8.E\	-di-
16E\	-ci-
4BB/	-te
=12	=12
2r	.
4r	.
8A\	be-
8A\	-ne-
=13	=13
8E\	-di-
16E\	-ci-
16E\	-te
8E\	sol
8E\	et
8A\	lu-
8G#X\	-na
8.A\	Do-
16A\	-mi-
=14	=14
4E\	-no
4r	.
!!LO:LB:g=original
4r	.
8E\	be-
8E\	-ne-
=15	=15
8A\	-di-
16A\	-ci-
16A\	-te
8A\	o(m-
8A\	-n)es
8.F#\	im-
16F#\	-ber
8F#\	et
8F#\	ros
=16	=16
4.G\	Do-
8G\	-mi-
4F#\	-no
4r	.
=17	=17
4r	.
8F#\	be-
8F#\	-ne-
8.B\	-di-
16B\	-ci-
8B\	-te
*custos:G	*
8F#\	i-
!!LO:LB:g=original
=18	=18
8.G\	-gnis
16G\	et
8G\	ae-
8F#\	-ſt(us)
4.E\	D(o-
8E\	-mi)-
=19	=19
4D\	-no
8D\	be-
8D\	-ne-
8.G\	-di-
16G\	-ci-
4G\	-te
=20	=20
8D\	ro-
8D\	-res
8D\	et
8D\	pru-
8G\	-i-
8D\	-na
8.G\	D(o-
16G\	-mi)-
=21	=21
4D\	-no
4r	.
2r	.
!!LO:LB:g=original
=22	=22
8A\	be-
8A\	-ne-
8A\	-di-
16A\	-ci-
16A\	-te
4D\	gla-
8D\	-cies
8D\	et
=23	=23
8E\	ni-
8D\	-ues
!LO:SIC:v:s=8.Cn	!
8.C-X/	D(o-
!LO:SIC:v:s=16Cn	!
16C-/	-mi)-
4BB/	-no
4r	.
=24	=24
4r	.
8A\	be-
8A\	-ne-
8B\	-di-
16B\	-ci-
16B\	-ta
8B\	lux
*custos:E	*
8B\	et
!!LO:LB:g=original
=25	=25
4E\	te-
8E\	-ne-
8E\	-brae
4.F#\	D(o-
8F#\	-mi)-
=26	=26
4G\	-no
4r	.
4r	.
8D\	be-
8D\	-ne-
=27	=27
4G\	-di-
4D\	-cat
4G\	ter-
4D\	-ra
=28	=28
8G\	D(o-
8D\	-mi)-
4G\	-no
4D\	lau-
4G\	-det
=29	=29
4E\	/lau-
4A\	-det
4F#\	lau-
4B\	-det/
!!LO:PB:g=original
=30	=30
4r	.
8G\	Be-
8G\	-ne-
4A\	-di-
8F#\	-ci-
8D/	-te
=31	=31
4A\	mon-
8A\	tes
8A\	et
8F#\	col-
8D\	-les
8.G\	Do-
16G\	-mi-
=32	=32
4F#\	-no
4r	.
2r	.
=33	=33
2r	.
4r	.
8F#\	be-
*custos:B	*
8F#\	-ne-
!!LO:LB:g=original
=34	=34
4B\	-di-
8B\	-ci-
8A\	-te
8G\	fon-
8F#\	-tes
8.E\	Do-
16D\	-mi-
=35	=35
4D\	-no
4r	.
2r	.
=36	=36
8F#\	Be-
8F#\	-ne-
8F#\	-di-
16F#\	-ci-
16G\	-te
4A\	ce-
8A\	-te
8A\	et
=37	=37
8D\	om-
16D\	-ni-
16D\	-a
!!LO:LB:g=original
8G\	quae
8F#\	in
8G\	ven-
8D/	-tis
8r	.
8F#\	in
=38	=38
8G\	a-
8D/	-quis
8.G\	Do-
16G\	-mi-
4D/	-no
4r	.
=39	=39
2r	.
4r	.
8E\	Be-
8E\	-ne-
=40	=40
8A\	-di-
16A\	-ci-
16A\	-te
8G#X\	om-
8G#\	-nes
!!LO:LB:g=original
4A\	be-
8E\	-stiae
8E\	et
=41	=41
8.A\	pe-
16A\	-co-
8E\	-ra
8E\	et
4B\	pe-
8A#X\	-co-
8A#\	-ra
=42	=42
8.B\	Do-
16B\	-mi-
4F#\	-no
4r	.
8G\	be-
8G\	-ne-
=43	=43
8F#\	-di-
16F#\	-ci-
16F#\	-te
8F#\	fi-
*custos:D	*
8F#\	-lij
!!LO:LB:g=original
4D/	ho-
8BB/	-mi-
8BB/	-num
=44	=44
4.F#\	Do-
8F#\	-mi-
4BB/	-no
4r	.
=45	=45
4G\	Lau-
8G\	-det
8G\	et
8D\	ſu-
16D\	-per-
16E\	-e-
8F#\	-xal-
8G\	-tet
=46	=46
4A\	e-
8F#\	-um
8D/	in
4.AA/	Sae-
8AA/	-cu-
!!LO:LB:g=original
=47	=47
4D/	-la
!LO:N:vis=4	!
2r	.
8E\	be-
8E\	-ne-
=48	=48
8A\	-di-
16A\	-ci-
16A\	-te
8A\	Ser-
8A\	-ui
4E\	Do-
8F#\	-mi-
8D\	-ni
=49	=49
4.E\	Do-
8E\	-mi-
4AA/	-no
4r	.
=50	=50
2r	.
4r	.
8A\	be-
8A\	-ne-
!!LO:LB:g=original
=51	=51
4D/	-di-
8D/	-ci-
8D/	-te
4E/	San-
8E/	-cti
8E/	et
=52	=52
4F#\	hu-
8F#\	-mi-
8F#\	-les
4G\	Cor-
4E\	-de
=53	=53
4.F#\	Do-
8F#\	-mi-
4BB/	-no
4r	.
=54-	=54-
1r	.
=55-	=55-
4r	.
8r	.
8A\	lau-
4G\	-da-
8G\	-te
8G\	et
!!LO:PB:g=original
=56	=56
8.D\	Su-
16D\	-per-
8D\	-e-
8D\	-xal-
8E\	-ta-
8E\	-te
4BB/	e-
=57	=57
!LO:SIC:v:s=4Cn	!
4C-X/	-um
4GG/	in
4.D/	Sae-
8D/	-cu-
=58	=58
4GG/	-la
4r	.
2r	.
=59	=59
2r	.
4r	.
4D/	lau-
=60	=60
4Cn/	-de-
8C/	-mus
8C/	et
!!LO:LB:g=original
8BB/	Su-
8BB/	-per-
8BB/	-e-
8BB/	-xal-
=61	=61
4.E\	-te-
8F#\	-mus
4G\	e-
8E\	-um
8E\	in
=62	=62
4.BB/	Sae-
8BB/	-cu-
4E\	-la
4r	.
=63	=63
4r	.
8F#\	et
8F#\	lau-
8.G\	-da-
16G\	-bi-
8G\	-lis
8G\	et
!!LO:LB:g=original
=64	=64
4.D\	glo-
8D\	-ri-
4E\	-o-
8E\	-sus
8E\	et
=65	=65
8F#\	Su-
8F#\	-per-
8F#\	-e-
8F#\	-xal-
4G\	-ta-
8D/	-tus
8D/	in
=66	=66
4.A\	Sae-
8A\	-cu-
4D/	-la
4r	.
=67	=67
4G\	Glo-
8G\	-ri-
8G\	-a
4D/	Pa-
8D/	-tri
8D/	et
!!LO:LB:g=original
=68	=68
4.G\	Fi-
8G\	-li-
4D/	-o
4r	.
=69	=69
4r	.
8E\	Si-
8E\	-cut
8.A\	e-
16A\	-rat
8A\	in
8A\	prin-
=70	=70
8.F#\	-ci-
16F#\	-pi-
8F#\	-o
8F#\	et
4.G\	nunc
8F#\	et
=71	=71
*2\right	*
2E\	ſem-
2D\	-per
!!LO:LB:g=original
=72	=72
4r	.
8A\	et
8A\	in
8D\	Sae-
16D\	-cu-
16D\	-la
8D\	Sae-
8D\	-cu-
=73	=73
8G\	-lo-
8D\	-rum
4A\	a-
4D/	-men
4AA/	a-
=74	=74
4D/	-men
!LO:TX:a:t=BD.	!
==	==
*-	*-
!!!EED: Leszek Kubiak
!!!EEV: 2021-02-16
!!!ENC: Krzysztof Stępień
!!!END: 2021-02-11
